packages/core/src/svgs/idia.svg

<svg width="24" height="24" viewBox="0 0 24 24" fill="none" xmlns="http://www.w3.org/2000/svg">
<g clip-path="url(#clip0_31_11712)">
<path d="M0 0H24V24H0V0Z" fill="url(#paint0_linear_31_11712)"/>
<path d="M7.28577 5.57164V17.7859C7.28577 18.1888 7.6072 18.4245 7.92862 18.4245C8.16434 18.4245 8.40005 18.2959 8.51577 18.0216L13.3029 6.01307C13.3404 5.91658 13.3539 5.81243 13.3422 5.70957C13.3306 5.60671 13.2941 5.50823 13.2359 5.42262C13.1777 5.33701 13.0995 5.26683 13.0082 5.21813C12.9168 5.16943 12.815 5.14367 12.7115 5.14307H7.71434C7.60142 5.1442 7.49351 5.18985 7.41406 5.2701C7.33461 5.35035 7.29005 5.45871 7.29005 5.57164H7.28577Z" fill="#FF0EA9"/>
<path d="M10.5257 18.2826L14.8843 7.12262C14.9486 6.95976 15.0986 6.86547 15.2486 6.8569C15.3429 6.84833 15.4415 6.87833 15.5229 6.94262C20.4129 10.8469 17.64 19.1869 10.8815 18.8483C10.8159 18.8453 10.7521 18.8264 10.6954 18.7933C10.6387 18.7602 10.5908 18.7139 10.5559 18.6584C10.5209 18.6028 10.5 18.5396 10.4947 18.4742C10.4895 18.4088 10.5001 18.343 10.5257 18.2826Z" fill="#00DAFF"/>
</g>
<defs>
<linearGradient id="paint0_linear_31_11712" x1="4.46571" y1="4.16143" x2="29.2071" y2="32.58" gradientUnits="userSpaceOnUse">
<stop stop-color="#1A1E21"/>
<stop offset="1" stop-color="#06060A"/>
</linearGradient>
<clipPath id="clip0_31_11712">
<rect width="24" height="24" fill="white"/>
</clipPath>
</defs>
</svg>

<svg xmlns="http://www.w3.org/2000/svg" width="24" height="24" fill="none" viewBox="0 0 24 24"><g clip-path="url(#a)"><path fill="url(#b)" d="M0 0h24v24H0z"/><path fill="#FF0EA9" d="M7.286 5.572v12.214a.63.63 0 0 0 .643.638.63.63 0 0 0 .587-.402l4.787-12.009a.64.64 0 0 0-.592-.87H7.714a.43.43 0 0 0-.424.429z"/><path fill="#00DAFF" d="m10.526 18.283 4.358-11.16a.42.42 0 0 1 .365-.266.4.4 0 0 1 .274.086c4.89 3.904 2.117 12.244-4.641 11.905a.406.406 0 0 1-.356-.565"/></g><defs><linearGradient id="b" x1="4.466" x2="29.207" y1="4.161" y2="32.58" gradientUnits="userSpaceOnUse"><stop stop-color="#1A1E21"/><stop offset="1" stop-color="#06060A"/></linearGradient><clipPath id="a"><path fill="#fff" d="M0 0h24v24H0z"/></clipPath></defs></svg>
